web/ui/src/components/theme/button/svgs/delete.svg

<svg height="16" viewBox="0 0 16 16" width="16" xmlns="http://www.w3.org/2000/svg"><g fill="none"><path d="m0 0h16v16h-16z" fill="#000" opacity="0"/><path d="m11.9197528 13.0724291c0 .4834143-.3832292.8752989-.8559665.8752989h-6.16015251c-.47220401-.0013139-.85468161-.3924299-.85596653-.8752989v-9.2815169h7.87208554zm-6.16250724-10.85035872c-.00061958-.04776673.01765614-.09376742.05068937-.12754673.03303323-.0337793.07801793-.05246779.12472965-.05181781h4.11144572c.0467118-.00064998.0916964.01803851.1247297.05181781.0330332.03377931.0513089.07978.0506894.12754673v.51656987h-4.46228384zm8.72806814.51656987h-3.2461244v-.51656987c0-.67493083-.5350551-1.22207038-1.195079-1.22207038h-4.11144572c-.65895888.00262198-1.19251487.54822859-1.19507894 1.22207038v.51656987h-3.25547924c-.27134797.01869683-.4821064.24922604-.4821064.52733173 0 .2781057.21075843.50863491.4821064.52733174h1.53653007v9.27912538c0 .5112236.19859736 1.0015088.55210293 1.3629985.35350557.3614896.83296202.5645724 1.33289439.5645724h6.16015251c.4999324 0 .9793888-.2030828 1.3328944-.5645724.3535056-.3614897.5521029-.8517749.5521029-1.3629985v-9.2815169h1.5365301c.284159 0 .5146038-.2355591.5146038-.52613598.0024773-.1403278-.0509061-.27568234-.1479583-.37492643-.0970521-.09924408-.2294171-.15383319-.3666455-.15120954zm-6.50160366 9.62828835c.13686415 0 .26808882-.0557588.36464669-.1549462.09655786-.0991875.15049082-.2336275.14987403-.3735813v-5.60334814c0-.29057688-.23036171-.52613598-.51452072-.52613598-.284159 0-.51452072.2355591-.51452072.52613598v5.60334814c-.00061678.1399538.05331617.2743938.14987404.3735813.09655786.0991874.22778254.1549462.36464668.1549462m-2.40185141 0c.28545063 0 .5168541-.2366298.5168541-.5285275v-5.60334814c.01297267-.19687356-.08238088-.38474236-.24728516-.48720958-.16490427-.10246722-.37189491-.10246722-.53679918 0-.16490428.10246722-.26025783.29033602-.24728516.48720958v5.60334814c.00731111.2878214.23308706.519746.5145154.5285275m4.80370287 0c.2845369-.0013166.5145183-.2375612.5145154-.5285275v-5.60334814c.0129726-.19687356-.0823809-.38474236-.2472852-.48720958s-.3718949-.10246722-.5367992 0c-.16490426.10246722-.26025782.29033602-.24728514.48720958v5.60334814c0 .2918977.23140344.5285275.51685414.5285275" fill="#595959"/></g></svg>

<?xml version="1.0" encoding="UTF-8"?>
<svg width="16px" height="16px" viewBox="0 0 16 16" version="1.1" xmlns="http://www.w3.org/2000/svg" xmlns:xlink="http://www.w3.org/1999/xlink">
    <title>delete</title>
    <g id="页面-1" stroke="none" stroke-width="1" fill="none" fill-rule="evenodd">
        <g id="系统设计规范" transform="translate(-444.000000, -5253.000000)" fill-rule="nonzero">
            <g id="delete" transform="translate(444.000000, 5253.000000)">
                <rect id="矩形" fill="#000000" opacity="0" x="0" y="0" width="16" height="16"></rect>
                <path d="M11.9197528,13.0724291 C11.9197528,13.5558434 11.5365236,13.947728 11.0637863,13.947728 L4.90363379,13.947728 C4.43142978,13.9464141 4.04895218,13.5552981 4.04766726,13.0724291 L4.04766726,3.7909122 L11.9197528,3.7909122 L11.9197528,13.0724291 Z M5.75724556,2.22207038 C5.75662598,2.17430365 5.7749017,2.12830296 5.80793493,2.09452365 C5.84096816,2.06074435 5.88595286,2.04205586 5.93266458,2.04270584 L10.0441103,2.04270584 C10.0908221,2.04205586 10.1358067,2.06074435 10.16884,2.09452365 C10.2018732,2.12830296 10.2201489,2.17430365 10.2195294,2.22207038 L10.2195294,2.73864025 L5.75724556,2.73864025 L5.75724556,2.22207038 Z M14.4853137,2.73864025 L11.2391893,2.73864025 L11.2391893,2.22207038 C11.2391893,1.54713955 10.7041342,1 10.0441103,1 L5.93266458,1 C5.2737057,1.00262198 4.74014971,1.54822859 4.73758564,2.22207038 L4.73758564,2.73864025 L1.4821064,2.73864025 C1.21075843,2.75733708 1,2.98786629 1,3.26597198 C1,3.54407768 1.21075843,3.77460689 1.4821064,3.79330372 L3.01863647,3.79330372 L3.01863647,13.0724291 C3.01863647,13.5836527 3.21723383,14.0739379 3.5707394,14.4354276 C3.92424497,14.7969172 4.40370142,15 4.90363379,15 L11.0637863,15 C11.5637187,15 12.0431751,14.7969172 12.3966807,14.4354276 C12.7501863,14.0739379 12.9487836,13.5836527 12.9487836,13.0724291 L12.9487836,3.7909122 L14.4853137,3.7909122 C14.7694727,3.7909122 14.9999175,3.5553531 14.9999175,3.26477622 C15.0023948,3.12444842 14.9490114,2.98909388 14.8519592,2.88984979 C14.7549071,2.79060571 14.6225421,2.7360166 14.4853137,2.73864025 Z M7.98371004,12.3669286 C8.12057419,12.3669286 8.25179886,12.3111698 8.34835673,12.2119824 C8.44491459,12.1127949 8.49884755,11.9783549 8.49823076,11.8384011 L8.49823076,6.23505296 C8.49823076,5.94447608 8.26786905,5.70891698 7.98371004,5.70891698 C7.69955104,5.70891698 7.46918932,5.94447608 7.46918932,6.23505296 L7.46918932,11.8384011 C7.46857254,11.9783549 7.52250549,12.1127949 7.61906336,12.2119824 C7.71562122,12.3111698 7.8468459,12.3669286 7.98371004,12.3669286 M5.58185863,12.3669286 C5.86730926,12.3669286 6.09871273,12.1302988 6.09871273,11.8384011 L6.09871273,6.23505296 C6.1116854,6.0381794 6.01633185,5.8503106 5.85142757,5.74784338 C5.6865233,5.64537616 5.47953266,5.64537616 5.31462839,5.74784338 C5.14972411,5.8503106 5.05437056,6.0381794 5.06734323,6.23505296 L5.06734323,11.8384011 C5.07465434,12.1262225 5.30043029,12.3581471 5.58185863,12.3669286 M10.3855615,12.3669286 C10.6700984,12.365612 10.9000798,12.1293674 10.9000769,11.8384011 L10.9000769,6.23505296 C10.9130495,6.0381794 10.817696,5.8503106 10.6527917,5.74784338 C10.4878874,5.64537616 10.2808968,5.64537616 10.1159925,5.74784338 C9.95108824,5.8503106 9.85573468,6.0381794 9.86870736,6.23505296 L9.86870736,11.8384011 C9.86870736,12.1302988 10.1001108,12.3669286 10.3855615,12.3669286" id="形状" fill="#595959"></path>
            </g>
        </g>
    </g>
</svg>
